X:8
T:Alice
C:Telemann
N:From Concerto for oboe d'amore and strings in A
N:For the dance by Philippe Callens
%%MIDI beat 100 95 80
S:Colin Hume's website,  colinhume.com  - chords can also be printed below the stave.
Q:1/4=116
M:3/4
L:1/8
%%MIDI program 68     Oboe
%%MIDI bassprog 32    Acoustic Bass
%%MIDI chordprog 45   Pizzicato Strings
%%stretchstaff 0
%%MIDI gchord bcb
K:A
P:A
|: AB | "A"c3 d e2 | "Bm"d3 c "E"B2 | "A"c4 A2 | "/"A4 :|
P:B
"D"f2 | "A/C#"e6- | e2 fg "D"af | "A/C#"e6- | e2 fg "A"aA | "Bm"d3 e d2 | "Bm"d4 "Bm/A"d2 |
"E/G#"b4 g2 | "/"e4 d2 | "A"c3 B "D"d2 | "A/E"c3 d "E"B2 | "A"A6 | A,4 |]

